X:13
T:An Original Gaelic Air
C:Colonel David Stewart
R:waltz
M:3/4
L:1/8
K:D
D>E | F2F2A>F | E2D2D>E | F2F2A2 | F4DE | F2F2F2 | E2F2B2 | A2F2E>D | D4::
A>d | f2e>de2 | d2B>AAd | f2e de2 | e4Ad | f2e>de2 | d2A2B2 | A2F2E2 | F4d2 |
F2F2AF | E2D2d2 | F2F2A2 | F4d2 | F2F2F2 | E2F2B2 | A2F2E>D | D4 :|
